**kern	**silbe	**kern	**silbe	**harmony	**phrase	**leadinstrument	**rhyme	**timestamp	**harte
*ICvox	*	*ICvox	*	*M4/4	*	*	*	*	*M4/4
*VRlead	*	*VRresponse	*	*	*	*	*	*	*
*Hstimme	*	*Nstimme	*	*	*	*	*	*	*
*c:	*	*c:	*	*c:	*c:	*c:	*	*c:	*c:
*M4/4	*	*M4/4	*	*	*	*	*	*	*
*clefG2	*	*clefF4	*	*	*	*	*	*	*
r;	.	r;	.	1r;	.	r	.	0	N.C.
=1	=1	=1	=1	=1	=1	=1	=1	=1	=1
*>Letter>A	*>Letter>A	*>Letter>A	*>Letter>A	*>Letter>A	*>Letter>A	*>Letter>A	*>Letter>A	*>Letter>A	*>Letter>A
*>Label>Intro	*>Label>Intro	*>Label>Intro	*>Label>Intro	*>Label>Intro	*>Label>Intro	*>Label>Intro	*>Label>Intro	*>Label>Intro	*>Label>Intro
1r	.	1r	.	4Cmm	newline	synth	.	0.488	C:min7
.	.	.	.	4B-M	.	synth	.	0.989	B-:maj
.	.	.	.	2A-MM	.	synth	.	1.491	A-:maj7
=2	=2	=2	=2	=2	=2	=2	=2	=2	=2
1r	.	1r	.	4Gmm	.	synth	.	2.495	G:min7
.	.	.	.	2.Fmm	.	synth	.	2.996	F:min7
=3	=3	=3	=3	=3	=3	=3	=3	=3	=3
1r	.	1r	.	4Cmm	.	synth	.	4.502	C:min7
.	.	.	.	4B-M	.	synth	.	5.004	B-:maj
.	.	.	.	2A-MM	.	synth	.	5.505	A-:maj7
=4	=4	=4	=4	=4	=4	=4	=4	=4	=4
1r	.	1r	.	4Gmm	.	synth	.	6.509	G:min7
.	.	.	.	2Fmm	.	synth	.	7.011	F:min7
.	.	.	.	4GMm	.	synth	.	8.014	G:7
=5	=5	=5	=5	=5	=5	=5	=5	=5	=5
1r	.	1r	.	4Cmm	newline	synth	.	8.516	C:min7
.	.	.	.	4B-M	.	synth	.	9.013	B-:maj
.	.	.	.	2A-MM	.	synth	.	9.51	A-:maj7
=6	=6	=6	=6	=6	=6	=6	=6	=6	=6
1r	.	1r	.	4Gmm	.	synth	.	10.503	G:min7
.	.	.	.	2.Fmm	.	synth	.	11	F:min7
=7	=7	=7	=7	=7	=7	=7	=7	=7	=7
1r	.	1r	.	4A-MM	.	synth	.	12.49	A-:maj7
.	.	.	.	4Gmm	.	synth	.	12.987	G:min7
.	.	.	.	2Fmm	.	synth	.	13.484	F:min7
=8	=8	=8	=8	=8	=8	=8	=8	=8	=8
1r	.	1r	.	4FM	.	synth	.	14.478	F:maj/2
.	.	.	.	2.Fmm	.	synth	.	14.974	F:min7
=9	=9	=9	=9	=9	=9	=9	=9	=9	=9
1r	.	1r	.	1Fmm	.	synth	.	16.465	F:min7
=10	=10	=10	=10	=10	=10	=10	=10	=10	=10
*>Letter>A	*>Letter>A	*>Letter>A	*>Letter>A	*>Letter>A	*>Letter>A	*>Letter>A	*>Letter>A	*>Letter>A	*>Letter>A
*>Label>Chorus	*>Label>Chorus	*>Label>Chorus	*>Label>Chorus	*>Label>Chorus	*>Label>Chorus	*>Label>Chorus	*>Label>Chorus	*>Label>Chorus	*>Label>Chorus
8g	La-	1r	.	4Cmm	newline	voice	(A	18.452	C:min7
8g	-dy,	.	.	.	.	.	a)	.	.
4r	.	.	.	4B-M	.	voice	.	18.948	B-:maj
2r	.	.	.	2A-MM	.	voice	.	19.444	A-:maj7
=11	=11	=11	=11	=11	=11	=11	=11	=11	=11
4r	.	1r	.	4Gmm	.	voice	.	20.436	G:min7
8r	.	.	.	2.Fmm	.	voice	.	20.932	F:min7
8c	you	.	.	.	.	.	.	.	.
4e-	bring	.	.	.	.	.	.	.	.
8c	me	.	.	.	.	.	.	.	.
8g	up	.	.	.	.	.	.	.	.
=12	=12	=12	=12	=12	=12	=12	=12	=12	=12
8r	.	1r	.	4Cmm	.	voice	.	22.42	C:min7
8B-	when	.	.	.	.	.	.	.	.
8c	I	.	.	4B-M	.	voice	.	22.916	B-:maj
8B-	am	.	.	.	.	.	(b	.	.
4c	down.	.	.	2A-MM	.	voice	B)	23.412	A-:maj7
4r	.	.	.	.	.	.	.	.	.
=13	=13	=13	=13	=13	=13	=13	=13	=13	=13
2r	.	1r	.	4Gmm	.	voice	.	24.404	G:min7
.	.	.	.	2Fmm	.	voice	.	24.9	F:min7
4r	.	.	.	.	.	.	.	.	.
8r	.	.	.	4GMm	.	voice	.	25.892	G:7/3
8c	And	.	.	.	.	.	.	.	.
=14	=14	=14	=14	=14	=14	=14	=14	=14	=14
8g	may-	1r	.	4Cmm	newline	voice	(A	26.388	C:min7
8g	-be,	.	.	.	.	.	a)	.	.
16f	_	.	.	4B-M	.	voice	.	26.884	B-:maj
16e-	_	.	.	.	.	.	.	.	.
8r	.	.	.	.	.	.	.	.	.
2r	.	.	.	2A-MM	.	voice	.	27.379	A-:maj7
=15	=15	=15	=15	=15	=15	=15	=15	=15	=15
4r	.	1r	.	4Gmm	.	voice	.	28.371	G:min7
8r	.	.	.	2.Fmm	.	voice	.	28.866	F:min7
8c	you're	.	.	.	.	.	.	.	.
4e-	gon-	.	.	.	.	.	.	.	.
8c	-na	.	.	.	.	.	.	.	.
[8g	change	.	.	.	.	.	.	.	.
=16	=16	=16	=16	=16	=16	=16	=16	=16	=16
8g]	_	1r	.	4A-MM	.	voice	.	30.353	A-:maj7
8B-	my	.	.	.	.	.	.	.	.
8c	life	.	.	4Gmm	.	voice	.	30.849	G:min7
8B-	a-	.	.	.	.	.	(b	.	.
4c	-round.	.	.	2Fmm	.	voice	B)	31.345	F:min7
4r	.	.	.	.	.	.	.	.	.
=17	=17	=17	=17	=17	=17	=17	=17	=17	=17
1r	.	1r	.	4FM	.	voice	.	32.336	F:maj/2
.	.	.	.	2.Fmm	.	voice	.	32.832	F:min7
=18	=18	=18	=18	=18	=18	=18	=18	=18	=18
1r	.	1r	.	1Fmm	.	voice	.	34.319	F:min7
=19	=19	=19	=19	=19	=19	=19	=19	=19	=19
*>Letter>B	*>Letter>B	*>Letter>B	*>Letter>B	*>Letter>B	*>Letter>B	*>Letter>B	*>Letter>B	*>Letter>B	*>Letter>B
*>Label>Verse	*>Label>Verse	*>Label>Verse	*>Label>Verse	*>Label>Verse	*>Label>Verse	*>Label>Verse	*>Label>Verse	*>Label>Verse	*>Label>Verse
4r	.	1r	.	4Cmm	newline	voice	.	36.302	C:min7
4g	You	.	.	2.B-M	.	voice	.	36.799	B-:maj
4e-	came	.	.	.	.	.	.	.	.
8c	to	.	.	.	.	.	.	.	.
[8c	me	.	.	.	.	.	C	.	.
=20	=20	=20	=20	=20	=20	=20	=20	=20	=20
8c]	_	1r	.	4Fmm	.	voice	.	38.289	F:min7
8B-	when	.	.	.	.	.	.	.	.
8c	I	.	.	2.Gmm	.	voice	.	38.786	G:min7
8B-	was	.	.	.	.	.	.	.	.
4c	lone-	.	.	.	.	.	(C	.	.
8e-	-ly,	.	.	.	.	.	c)	.	.
8r	.	.	.	.	.	.	.	.	.
=21	=21	=21	=21	=21	=21	=21	=21	=21	=21
4r	.	1r	.	4Cmm	.	voice	.	40.277	C:min7
4g	and	.	.	2.B-M	.	voice	.	40.774	B-:maj
4e-	no-	.	.	.	.	.	.	.	.
8c	-one	.	.	.	.	.	.	.	.
8B-q	_	.	.	.	.	.	.	.	.
8c	cared	.	.	.	.	.	D	.	.
=22	=22	=22	=22	=22	=22	=22	=22	=22	=22
8B-q	_	.	.	.	.	.	.	.	.
8c	_	1r	.	4Fmm	.	voice	.	42.264	F:min7
[8B-	_	.	.	.	.	.	.	.	.
4B-]	_	.	.	2.Gmm	.	voice	.	42.761	G:min7
2r	.	.	.	.	.	.	.	.	.
=23	=23	=23	=23	=23	=23	=23	=23	=23	=23
4r	.	1r	.	4Cmm	newline	voice	.	44.252	C:min7
4g	You	.	.	2.B-M	.	voice	.	44.749	B-:maj
4e-	made	.	.	.	.	.	.	.	.
8c	me	.	.	.	.	.	.	.	.
[8c	see	.	.	.	.	.	.	.	.
=24	=24	=24	=24	=24	=24	=24	=24	=24	=24
8c]	_	1r	.	4Fmm	.	voice	.	46.24	F:min7
8B-	that	.	.	.	.	.	.	.	.
8c	I	.	.	2.Gmm	.	voice	.	46.737	G:min7
8B-	was	.	.	.	.	.	.	.	.
4c	on-	.	.	.	.	.	(C	.	.
8e-	-ly	.	.	.	.	.	c)	.	.
8r	.	.	.	.	.	.	.	.	.
=25	=25	=25	=25	=25	=25	=25	=25	=25	=25
4r	.	1r	.	4Cmm	.	voice	.	48.228	C:min7
4g	just	.	.	2.B-M	.	voice	.	48.725	B-:maj
4e-	run-	.	.	.	.	.	.	.	.
8c	-nin'	.	.	.	.	.	.	.	.
8e-q	_	.	.	.	.	.	.	.	.
8f	scared!	.	.	.	.	.	D	.	.
=26	=26	=26	=26	=26	=26	=26	=26	=26	=26
8.e-	_	1r	.	4Fmm	.	voice	.	50.217	F:min7
16f	_	.	.	.	.	.	.	.	.
8g	_	.	.	4Gmm	.	voice	.	50.714	G:min7
8r	.	.	.	.	.	.	.	.	.
2r	.	.	.	4E-M	.	voice	.	51.211	E-:maj
.	.	.	.	4FM	.	voice	.	51.708	F:maj
=27	=27	=27	=27	=27	=27	=27	=27	=27	=27
4r	.	1r	.	4Cmm	newline	voice	.	52.205	C:min7
4g 4b-	I	.	.	2.B-M	.	voice	.	52.701	B-:maj
4g 4b-	saw	.	.	.	.	.	.	.	.
8g 8b-	your	.	.	.	.	.	.	.	.
8g 8b-	face	.	.	.	.	.	.	.	.
=28	=28	=28	=28	=28	=28	=28	=28	=28	=28
8f 8a-	_	1r	.	4Fmm	.	voice	.	54.189	F:min7
8e- 8g	and	.	.	.	.	.	.	.	.
8e- 8g	some-	.	.	2.Gmm	.	voice	.	54.685	G:min7
8c 8f	-thin'	.	.	.	.	.	.	.	.
4f 4a-	told	.	.	.	.	.	(C	.	.
8e- 8g	me	.	.	.	.	.	c)	.	.
8c 8e-	_	.	.	.	.	.	.	.	.
=29	=29	=29	=29	=29	=29	=29	=29	=29	=29
4r	.	1r	.	4Cmm	.	voice	.	56.172	C:min7
4g	you	.	.	2.B-M	.	voice	.	56.668	B-:maj
4e-	were	.	.	.	.	.	.	.	.
8c	the	.	.	.	.	.	.	.	.
8e-q	_	.	.	.	.	.	.	.	.
8f	one!	.	.	.	.	.	E	.	.
=30	=30	=30	=30	=30	=30	=30	=30	=30	=30
4e-	_	1r	.	4Fmm	.	voice	.	58.156	F:min7
16f	_	.	.	2.Gmm	.	voice	.	58.652	G:min7
8g	_	.	.	.	.	.	.	.	.
16r	.	.	.	.	.	.	.	.	.
2r	.	.	.	.	.	.	.	.	.
=31	=31	=31	=31	=31	=31	=31	=31	=31	=31
4r	.	1r	.	4Cmm	newline	voice	.	60.14	C:min7
4g	You	.	.	2.B-M	.	voice	.	60.636	B-:maj
4g	smiled	.	.	.	.	.	.	.	.
8g	at	.	.	.	.	.	.	.	.
8g	me	.	.	.	.	.	F	.	.
=32	=32	=32	=32	=32	=32	=32	=32	=32	=32
8f	_	1r	.	4Fmm	.	voice	.	62.124	F:min7
8e-	and	.	.	.	.	.	.	.	.
8e-	now	.	.	2.Gmm	.	voice	.	62.62	G:min7
8c	_	.	.	.	.	.	.	.	.
4e-	I	.	.	.	.	.	.	.	.
4f	see	.	.	.	.	.	F	.	.
=33	=33	=33	=33	=33	=33	=33	=33	=33	=33
4r	.	1r	.	4A-MM	.	voice	.	64.108	A-:maj7
4g	my	.	.	4Gmm	.	voice	.	64.604	G:min7
4e-	life's	.	.	2Fmm	.	voice	.	65.1	F:min7
8c	be-	.	.	.	.	.	.	.	.
8c	-gun	.	.	.	.	.	E	.	.
=34	=34	=34	=34	=34	=34	=34	=34	=34	=34
8B-	_	1r	.	4FM	.	voice	.	66.092	F:maj/2
8G	_	.	.	.	.	.	.	.	.
16B-	_	.	.	2.Fmm	.	voice	.	66.588	F:min7
[8.c	_	.	.	.	.	.	.	.	.
2c_	_	.	.	.	.	.	.	.	.
=35	=35	=35	=35	=35	=35	=35	=35	=35	=35
2c]	_	1r	.	1Fmm	.	voice	.	68.076	F:min7
2r	.	.	.	.	.	.	.	.	.
=36	=36	=36	=36	=36	=36	=36	=36	=36	=36
*>Letter>C	*>Letter>C	*>Letter>C	*>Letter>C	*>Letter>C	*>Letter>C	*>Letter>C	*>Letter>C	*>Letter>C	*>Letter>C
*>Label>Interlude	*>Label>Interlude	*>Label>Interlude	*>Label>Interlude	*>Label>Interlude	*>Label>Interlude	*>Label>Interlude	*>Label>Interlude	*>Label>Interlude	*>Label>Interlude
1r	.	1r	.	4A-MM	newline	synth	.	70.06	A-:maj7
.	.	.	.	4Gmm	.	synth	.	70.562	G:min7
.	.	.	.	2Fmm	.	synth	.	71.064	F:min7
=37	=37	=37	=37	=37	=37	=37	=37	=37	=37
1r	.	1r	.	4FM	.	synth	.	72.068	F:maj/2
.	.	.	.	2.Fmm	.	synth	.	72.57	F:min7
=38	=38	=38	=38	=38	=38	=38	=38	=38	=38
1r	.	1r	.	1Fmm	.	synth	.	74.076	F:min7
=39	=39	=39	=39	=39	=39	=39	=39	=39	=39
*>Letter>A	*>Letter>A	*>Letter>A	*>Letter>A	*>Letter>A	*>Letter>A	*>Letter>A	*>Letter>A	*>Letter>A	*>Letter>A
*>Label>Chorus	*>Label>Chorus	*>Label>Chorus	*>Label>Chorus	*>Label>Chorus	*>Label>Chorus	*>Label>Chorus	*>Label>Chorus	*>Label>Chorus	*>Label>Chorus
8g	La-	2r	.	4Cmm	newline	voice	(A	76.084	C:min7
8g	-dy,	.	.	.	.	.	a)	.	.
4r	.	.	.	4B-M	.	voice	.	76.574	B-:maj
2r	.	8r	.	2A-MM	.	voice	.	77.064	A-:maj7
.	.	8b-	Pret-	.	.	.	.	.	.
.	.	8g	-ty	.	.	.	.	.	.
.	.	[8b-	la	.	.	.	.	.	.
=40	=40	=40	=40	=40	=40	=40	=40	=40	=40
4r	.	4b-]	_	4Gmm	.	voice	.	78.044	G:min7
8r	.	4g	dy!	2.Fmm	.	voice	.	78.534	F:min7
8c	You	.	.	.	.	.	.	.	.
4e-	brought	2r	.	.	.	.	.	.	.
8c	me	.	.	.	.	.	.	.	.
8g	in	.	.	.	.	.	.	.	.
=41	=41	=41	=41	=41	=41	=41	=41	=41	=41
8r	.	1r	.	4Cmm	.	voice	.	80.004	C:min7
8B-	from	.	.	.	.	.	.	.	.
8c	out	.	.	4B-M	.	voice	.	80.494	B-:maj
8B-	the	.	.	.	.	.	.	.	.
4c	rain.	.	.	2A-MM	.	voice	G	80.984	A-:maj7
4r	.	.	.	.	.	.	.	.	.
=42	=42	=42	=42	=42	=42	=42	=42	=42	=42
2r	.	2r	.	4Gmm	.	voice	.	81.964	G:min7
.	.	.	.	2Fmm	.	voice	.	82.454	F:min7
4r	.	4f	Yeah!	.	.	.	.	.	.
8r	.	4e-	_	4GMm	.	voice	.	83.434	G:7/3
8c	And	.	.	.	.	.	.	.	.
=43	=43	=43	=43	=43	=43	=43	=43	=43	=43
8g	may-	1r	.	4Cmm	newline	voice	(A	83.924	C:min7
8g	-be,	.	.	.	.	.	a)	.	.
8f	_	.	.	4B-M	.	voice	.	84.42	B-:maj
8e-	_	.	.	.	.	.	.	.	.
2r	.	.	.	2A-MM	.	voice	.	84.915	A-:maj7
=44	=44	=44	=44	=44	=44	=44	=44	=44	=44
4r	.	1r	.	4Gmm	.	voice	.	85.907	G:min7
8r	.	.	.	2.Fmm	.	voice	.	86.402	F:min7
8c	my	.	.	.	.	.	.	.	.
4e-	life	.	.	.	.	.	.	.	.
8c	will	.	.	.	.	.	.	.	.
[8g	ne	.	.	.	.	.	.	.	.
=45	=45	=45	=45	=45	=45	=45	=45	=45	=45
8g]	_	1r	.	4A-MM	.	voice	.	87.889	A-:maj7
8B-	ver	.	.	.	.	.	.	.	.
8c	be	.	.	4Gmm	.	voice	.	88.385	G:min7
8B-	the	.	.	.	.	.	.	.	.
4c	same.	.	.	2Fmm	.	voice	G	88.88	F:min7
4r	.	.	.	.	.	.	.	.	.
=46	=46	=46	=46	=46	=46	=46	=46	=46	=46
1r	.	1r	.	4FM	.	voice	.	89.872	F:maj/2
.	.	.	.	2.Fmm	.	voice	.	90.367	F:min7
=47	=47	=47	=47	=47	=47	=47	=47	=47	=47
1r	.	1r	.	1Fmm	.	voice	.	91.854	F:min7
=48	=48	=48	=48	=48	=48	=48	=48	=48	=48
*>Letter>B	*>Letter>B	*>Letter>B	*>Letter>B	*>Letter>B	*>Letter>B	*>Letter>B	*>Letter>B	*>Letter>B	*>Letter>B
*>Label>Verse	*>Label>Verse	*>Label>Verse	*>Label>Verse	*>Label>Verse	*>Label>Verse	*>Label>Verse	*>Label>Verse	*>Label>Verse	*>Label>Verse
4r	.	1r	.	4Cmm	newline	voice	.	93.837	C:min7
4g	Once	.	.	2.B-M	.	voice	.	94.338	B-:maj
4g	I	.	.	.	.	.	.	.	.
8g	was	.	.	.	.	.	.	.	.
8g	filled	.	.	.	.	.	.	.	.
=49	=49	=49	=49	=49	=49	=49	=49	=49	=49
8f	_	1r	.	4Fmm	.	voice	.	95.84	F:min7
8e-	with	.	.	.	.	.	.	.	.
8e-	des-	.	.	2.Gmm	.	voice	(H	96.341	G:min7
8c	-per-	.	.	.	.	.	.	.	.
4f	-ra-	.	.	.	.	.	.	.	.
8e-	-tion,	.	.	.	.	.	h)	.	.
8c	_	.	.	.	.	.	.	.	.
=50	=50	=50	=50	=50	=50	=50	=50	=50	=50
8r	.	1r	.	4Cmm	.	voice	.	97.844	C:min7
8c	a	.	.	.	.	.	.	.	.
8g	so-	.	.	2.B-M	.	voice	.	98.345	B-:maj
8g	-li-	.	.	.	.	.	.	.	.
4e-	-ta-	.	.	.	.	.	.	.	.
8c	-ry	.	.	.	.	.	.	.	.
8c	man	.	.	.	.	.	I	.	.
=51	=51	=51	=51	=51	=51	=51	=51	=51	=51
16d	_	1r	.	4Fmm	.	voice	.	99.848	F:min7
16c	_	.	.	.	.	.	.	.	.
[8B-	_	.	.	.	.	.	.	.	.
8B-]	_	.	.	2.Gmm	.	voice	.	100.349	G:min7
8c	_	.	.	.	.	.	.	.	.
2r	.	.	.	.	.	.	.	.	.
=52	=52	=52	=52	=52	=52	=52	=52	=52	=52
4r	.	1r	.	4Cmm	newline	voice	.	101.852	C:min7
4g	You	.	.	2.B-M	.	voice	.	102.346	B-:maj
4g	gave	.	.	.	.	.	.	.	.
8g	me	.	.	.	.	.	.	.	.
16g	hope	.	.	.	.	.	.	.	.
[16f	_	.	.	.	.	.	.	.	.
=53	=53	=53	=53	=53	=53	=53	=53	=53	=53
8f]	_	1r	.	4Fmm	.	voice	.	103.828	F:min7
8e-	and	.	.	.	.	.	.	.	.
8e-	in-	.	.	2.Gmm	.	voice	(H	104.322	G:min7
8c	-spi-	.	.	.	.	.	.	.	.
4f	-ra-	.	.	.	.	.	.	.	.
16e-	-tion,	.	.	.	.	.	h)	.	.
8.c	_	.	.	.	.	.	.	.	.
=54	=54	=54	=54	=54	=54	=54	=54	=54	=54
8r	.	1r	.	4Cmm	.	voice	.	105.804	C:min7
8g	like	.	.	.	.	.	.	.	.
8g	on-	.	.	2.B-M	.	voice	.	106.298	B-:maj
8g	-ly	.	.	.	.	.	.	.	.
8e-	true	.	.	.	.	.	.	.	.
8c	love	.	.	.	.	.	.	.	.
8r	.	.	.	.	.	.	.	.	.
[8f	can!	.	.	.	.	.	I	.	.
=55	=55	=55	=55	=55	=55	=55	=55	=55	=55
4.f]	_	1r	.	4Fmm	.	voice	.	107.78	F:min7
.	.	.	.	4Gmm	.	voice	.	108.274	G:min7
8g	_	.	.	.	.	.	.	.	.
2r	.	.	.	4E-M	.	voice	.	108.768	E-:maj
.	.	.	.	4FM	.	voice	.	109.262	F:maj
=56	=56	=56	=56	=56	=56	=56	=56	=56	=56
4r	.	1r	.	4Cmm	newline	voice	.	109.756	C:min7
4g 4b-	Now	.	.	2.B-M	.	voice	.	110.253	B-:maj
4g 4b-	I	.	.	.	.	.	.	.	.
8g 8b-	be-	.	.	.	.	.	.	.	.
8g [8b-	-lieve	.	.	.	.	.	.	.	.
=57	=57	=57	=57	=57	=57	=57	=57	=57	=57
8f 8b-]	_	1r	.	4Fmm	.	voice	.	111.744	F:min7
8e- 8g	in	.	.	.	.	.	.	.	.
8e- 8g	what	.	.	2.Gmm	.	voice	.	112.241	G:min7
8c 8e-	you're	.	.	.	.	.	.	.	.
4f 4a-	sa-	.	.	.	.	.	(J	.	.
8f [8g	-yin	.	.	.	.	.	j)	.	.
8e- 8g]	',	.	.	.	.	.	.	.	.
=58	=58	=58	=58	=58	=58	=58	=58	=58	=58
4r	.	1r	.	4Cmm	.	voice	.	113.732	C:min7
8g	I'm	.	.	2.B-M	.	voice	.	114.229	B-:maj
8b-	ten	.	.	.	.	.	.	.	.
8r	.	.	.	.	.	.	.	.	.
8a-	feet	.	.	.	.	.	.	.	.
8g-	_	.	.	.	.	.	.	.	.
16g	tall	.	.	.	.	.	K	.	.
16f	_	.	.	.	.	.	.	.	.
=59	=59	=59	=59	=59	=59	=59	=59	=59	=59
4e-	_	1r	.	4Fmm	.	voice	.	115.72	F:min7
8c	_	.	.	2.Gmm	.	voice	.	116.217	G:min7
8r	.	.	.	.	.	.	.	.	.
2r	.	.	.	.	.	.	.	.	.
=60	=60	=60	=60	=60	=60	=60	=60	=60	=60
4r	.	1r	.	4Cmm	newline	voice	.	117.708	C:min7
8g	This	.	.	2.B-M	.	voice	.	118.205	B-:maj
8a-	_	.	.	.	.	.	.	.	.
8f#q	_	.	.	.	.	.	.	.	.
4g	love	.	.	.	.	.	.	.	.
8f	don't	.	.	.	.	.	.	.	.
[8e-	need	.	.	.	.	.	.	.	.
=61	=61	=61	=61	=61	=61	=61	=61	=61	=61
8e-]	_	1r	.	4Fmm	.	voice	.	119.698	F:min7
8c	no	.	.	.	.	.	.	.	.
8e-	ex-	.	.	2.Gmm	.	voice	.	120.196	G:min7
[8f	-pla	.	.	.	.	.	(J	.	.
8f]	_	.	.	.	.	.	.	.	.
8g	nin',	.	.	.	.	.	j)	.	.
8f	_	.	.	.	.	.	.	.	.
8r	.	.	.	.	.	.	.	.	.
=62	=62	=62	=62	=62	=62	=62	=62	=62	=62
4r	.	1r	.	4A-MM	.	voice	.	121.688	A-:maj7
4g	We've	.	.	4Gmm	.	voice	.	122.186	G:min7
8e-	got	.	.	2Fmm	.	voice	.	122.683	F:min7
8c	it	.	.	.	.	.	.	.	.
8r	.	.	.	.	.	.	.	.	.
8B-q	_	.	.	.	.	.	.	.	.
[8c	all!	.	.	.	.	.	K	.	.
=63	=63	=63	=63	=63	=63	=63	=63	=63	=63
8c]	_	1r	.	4FM	.	voice	.	123.678	F:maj/2
8e-	_	.	.	.	.	.	.	.	.
8c	_	.	.	2.Fmm	.	voice	.	124.176	F:min7
[8e-	_	.	.	.	.	.	.	.	.
4e-]	_	.	.	.	.	.	.	.	.
8f	_	.	.	.	.	.	.	.	.
8e-	_	.	.	.	.	.	.	.	.
=64	=64	=64	=64	=64	=64	=64	=64	=64	=64
*>Letter>A	*>Letter>A	*>Letter>A	*>Letter>A	*>Letter>A	*>Letter>A	*>Letter>A	*>Letter>A	*>Letter>A	*>Letter>A
*>Label>Chorus	*>Label>Chorus	*>Label>Chorus	*>Label>Chorus	*>Label>Chorus	*>Label>Chorus	*>Label>Chorus	*>Label>Chorus	*>Label>Chorus	*>Label>Chorus
8g	Lady!	8g	La-	4Cmm	newline	voice	(A	125.668	C:min7
8g	_	8g	-dy,	.	.	.	a)	.	.
4f#	_	4r	.	4B-M	.	voice	.	126.163	B-:maj
2r	.	2r	.	2A-MM	.	voice	.	126.657	A-:maj7
=65	=65	=65	=65	=65	=65	=65	=65	=65	=65
1r	.	4r	.	4Gmm	.	voice	.	127.646	G:min7
.	.	8r	.	2.Fmm	.	voice	.	128.14	F:min7
.	.	8c	you	.	.	.	.	.	.
.	.	4e-	bring	.	.	.	.	.	.
.	.	8c	me	.	.	.	.	.	.
.	.	8g	up	.	.	.	.	.	.
=66	=66	=66	=66	=66	=66	=66	=66	=66	=66
2r	.	8r	.	4Cmm	.	voice	.	129.624	C:min7
.	.	8B-	when	.	.	.	.	.	.
.	.	8c	I	4B-M	.	voice	.	130.118	B-:maj
.	.	8B-	am	.	.	.	(b	.	.
4r	.	4c	down.	2A-MM	.	voice	B)	130.613	A-:maj7
8r	.	4r	.	.	.	.	.	.	.
8g	Up,	.	.	.	.	.	.	.	.
=67	=67	=67	=67	=67	=67	=67	=67	=67	=67
8r	.	2r	.	4Gmm	.	voice	.	131.602	G:min7
8c	when	.	.	.	.	.	.	.	.
8c	I	.	.	2Fmm	.	voice	.	132.096	F:min7
8B-	am	.	.	.	.	.	.	.	.
16c	down!	4r	.	.	.	.	.	.	.
16B-	_	.	.	.	.	.	.	.	.
16c	_	.	.	.	.	.	.	.	.
[16B-	_	.	.	.	.	.	.	.	.
8B-]	_	8r	.	4GMm	.	voice	.	133.085	G:7/3
8c	_	8c	And	.	.	.	.	.	.
=68	=68	=68	=68	=68	=68	=68	=68	=68	=68
2r	.	8g	may-	4Cmm	newline	voice	.	133.58	C:min7
.	.	8g	-be,	.	.	.	.	.	.
.	.	16f	_	4B-M	.	voice	.	133.977	B-:maj
.	.	16e-	_	.	.	.	.	.	.
.	.	8r	.	.	.	.	.	.	.
8a-	May	2r	.	2A-MM	.	voice	(A	134.374	A-:maj7
8g	_	.	.	.	.	.	.	.	.
8fq	_	.	.	.	.	.	.	.	.
8g	_	.	.	.	.	.	.	.	.
8f	be!	.	.	.	.	.	a)	.	.
=69	=69	=69	=69	=69	=69	=69	=69	=69	=69
*	*	*clefF4	*	*	*	*	*	*	*
8.e-	_	4r	.	4Gmm	.	voice	.	135.169	G:min7
16c	_	.	.	.	.	.	.	.	.
4r	.	8r	.	2.Fmm	.	voice	.	135.566	F:min7
.	.	8c	you're	.	.	.	.	.	.
2r	.	4e-	gon-	.	.	.	.	.	.
.	.	8c	-na	.	.	.	.	.	.
.	.	[8g	change	.	.	.	.	.	.
=70	=70	=70	=70	=70	=70	=70	=70	=70	=70
1r	.	8g]	_	4A-MM	.	voice	.	136.757	A-:maj7
.	.	8c	my	.	.	.	.	.	.
.	.	8e-	life	4Gmm	.	voice	.	137.155	G:min7
.	.	8e-	a-	.	.	.	(b	.	.
.	.	8c	-round	2Fmm	.	voice	B)	137.552	F:min7
.	.	16B-	_	.	.	.	.	.	.
.	.	16G	_	.	.	.	.	.	.
.	.	8G	_	.	.	.	.	.	.
.	.	16F	_	.	.	.	.	.	.
.	.	16E-	_	.	.	.	.	.	.
=71	=71	=71	=71	=71	=71	=71	=71	=71	=71
1r	.	16F	_	4FM	.	voice	.	138.346	F:maj/2
.	.	8.E-	_	.	.	.	.	.	.
.	.	[4E-	_	2.Fmm	.	voice	.	138.743	F:min7
.	.	4.E-]	.	.	.	.	.	.	.
.	.	8r	.	.	.	.	.	.	.
=72	=72	=72	=72	=72	=72	=72	=72	=72	=72
*>Letter>D	*>Letter>D	*>Letter>D	*>Letter>D	*>Letter>D	*>Letter>D	*>Letter>D	*>Letter>D	*>Letter>D	*>Letter>D
*>Label>Bridge	*>Label>Bridge	*>Label>Bridge	*>Label>Bridge	*>Label>Bridge	*>Label>Bridge	*>Label>Bridge	*>Label>Bridge	*>Label>Bridge	*>Label>Bridge
4r	.	1r	.	1A-MM	newline	voice	.	141.524	A-:maj7
4c	Na	.	.	.	.	.	.	.	.
4d	na	.	.	.	.	.	.	.	.
4e-	na	.	.	.	.	.	.	.	.
=73	=73	=73	=73	=73	=73	=73	=73	=73	=73
8c#q	_	.	.	.	.	.	.	.	.
4d	na	1r	.	1B-M	.	voice	.	143.512	B-:maj/b7
8c	na	.	.	.	.	.	.	.	.
8B-	_	.	.	.	.	.	.	.	.
2B-	na...	.	.	.	.	.	.	.	.
=74	=74	=74	=74	=74	=74	=74	=74	=74	=74
4r	.	1r	.	1A-dm	.	voice	.	145.501	A-:hdim7
4B	na	.	.	.	.	.	.	.	.
4c	na	.	.	.	.	.	.	.	.
4d	na	.	.	.	.	.	.	.	.
=75	=75	=75	=75	=75	=75	=75	=75	=75	=75
8dq	_	.	.	.	.	.	.	.	.
4e-	na	1r	.	1Cmm	.	voice	.	147.489	C:min7
8d	na	.	.	.	.	.	.	.	.
8c	_	.	.	.	.	.	.	.	.
2c	na...	.	.	.	.	.	.	.	.
=76	=76	=76	=76	=76	=76	=76	=76	=76	=76
4r	.	1r	.	1A-MM	newline	voice	.	149.478	A-:maj7
4c	na	.	.	.	.	.	.	.	.
4d	na	.	.	.	.	.	.	.	.
4e-	na	.	.	.	.	.	.	.	.
=77	=77	=77	=77	=77	=77	=77	=77	=77	=77
8e-q	_	.	.	.	.	.	.	.	.
4f	na	1r	.	1B-M	.	voice	.	151.463	B-:maj/b7
8c#q	_	.	.	.	.	.	.	.	.
4d	na	.	.	.	.	.	.	.	.
8c	na	.	.	.	.	.	.	.	.
8B-	_	.	.	.	.	.	.	.	.
4B-	na...	.	.	.	.	.	.	.	.
=78	=78	=78	=78	=78	=78	=78	=78	=78	=78
4r	.	1r	.	1A-dm	.	voice	.	153.449	A-:hdim7
4B	na	.	.	.	.	.	.	.	.
4c	na	.	.	.	.	.	.	.	.
4d	na	.	.	.	.	.	.	.	.
=79	=79	=79	=79	=79	=79	=79	=79	=79	=79
8dq	_	.	.	.	.	.	.	.	.
4e-	na	1r	.	1Cmm	.	voice	.	155.434	C:min7
8d	na	.	.	.	.	.	.	.	.
8c	_	.	.	.	.	.	.	.	.
2c	na...	.	.	.	.	.	.	.	.
=80	=80	=80	=80	=80	=80	=80	=80	=80	=80
1r	.	4r	.	1A-MM	newline	voice	.	157.42	A-:maj7
.	.	4c	na	.	.	.	.	.	.
.	.	4d	na	.	.	.	.	.	.
.	.	4e-	na	.	.	.	.	.	.
=81	=81	=81	=81	=81	=81	=81	=81	=81	=81
.	.	8c#q	_	.	.	.	.	.	.
1r	.	4d	na	1B-M	.	voice	.	159.386	B-:maj/b7
.	.	8c	na	.	.	.	.	.	.
.	.	8B-	_	.	.	.	.	.	.
.	.	2B-	na...	.	.	.	.	.	.
=82	=82	=82	=82	=82	=82	=82	=82	=82	=82
1r	.	4r	.	1A-dm	.	voice	.	161.352	A-:hdim7
.	.	4B	na	.	.	.	.	.	.
.	.	4c	na	.	.	.	.	.	.
.	.	4d	na	.	.	.	.	.	.
=83	=83	=83	=83	=83	=83	=83	=83	=83	=83
*	*	*clefG2	*	*	*	*	*	*	*
.	.	8dq 8fq 8b-q	_	.	.	.	.	.	.
1r	.	4e- 4g 4cc	la	1Cmm	.	voice	.	163.318	C:min7
.	.	8d 8f 8b-	la	.	.	.	.	.	.
.	.	8c 8e- 8g	_	.	.	.	.	.	.
.	.	4c 4e- 4g	la	.	.	.	.	.	.
.	.	8d 8f 8b-	la	.	.	.	.	.	.
.	.	8e- 8g 8cc	_	.	.	.	.	.	.
=84	=84	=84	=84	=84	=84	=84	=84	=84	=84
1r	.	1e- 1g 1cc	la...	1Fmm	newline	voice	.	165.284	F:min7
=85	=85	=85	=85	=85	=85	=85	=85	=85	=85
[2.g	Whoa,	1r	.	1B-M	.	voice	.	167.313	B-:maj/b7
8g]	_	.	.	.	.	.	.	.	.
8f	_	.	.	.	.	.	.	.	.
=86	=86	=86	=86	=86	=86	=86	=86	=86	=86
*>Letter>A	*>Letter>A	*>Letter>A	*>Letter>A	*>Letter>A	*>Letter>A	*>Letter>A	*>Letter>A	*>Letter>A	*>Letter>A
*>Label>Chorus	*>Label>Chorus	*>Label>Chorus	*>Label>Chorus	*>Label>Chorus	*>Label>Chorus	*>Label>Chorus	*>Label>Chorus	*>Label>Chorus	*>Label>Chorus
8g	la-	8g	La-	4Cmm	newline	voice	(A	169.343	C:min7
8g	-dy!	8g	-dy!	.	.	.	a)	.	.
8f#	_	4r	.	4B-M	.	voice	.	169.837	B-:maj
8r	.	.	.	.	.	.	.	.	.
4e-	Mm,	2r	.	2A-MM	.	voice	.	170.331	A-:maj7
8f	ah!	.	.	.	.	.	.	.	.
8r	.	.	.	.	.	.	.	.	.
=87	=87	=87	=87	=87	=87	=87	=87	=87	=87
1r	.	4r	.	4Gmm	.	voice	.	171.32	G:min7
.	.	8r	.	2.Fmm	.	voice	.	171.814	F:min7
.	.	8c	You	.	.	.	.	.	.
.	.	4e-	bring	.	.	.	.	.	.
.	.	8c	me	.	.	.	.	.	.
.	.	8g	up	.	.	.	.	.	.
=88	=88	=88	=88	=88	=88	=88	=88	=88	=88
2r	.	8r	.	4Cmm	.	voice	.	173.297	C:min7
.	.	8B-	when	.	.	.	.	.	.
.	.	8c	I	4B-M	.	voice	.	173.792	B-:maj
.	.	8B-	am	.	.	.	(b	.	.
4r	.	4c	down!	2A-MM	.	voice	B)	174.286	A-:maj7
8r	.	4r	.	.	.	.	.	.	.
8g	Up	.	.	.	.	.	.	.	.
=89	=89	=89	=89	=89	=89	=89	=89	=89	=89
8r	.	2r	.	4Gmm	.	voice	.	175.275	G:min7
8c	when	.	.	.	.	.	.	.	.
8c	I	.	.	2Fmm	.	voice	.	175.769	F:min7
8B-	am	.	.	.	.	.	(b	.	.
16c	down!	4r	.	.	.	.	B)	.	.
16B-	_	.	.	.	.	.	.	.	.
16c	_	.	.	.	.	.	.	.	.
[16B-	_	.	.	.	.	.	.	.	.
8B-]	_	8r	.	4GMm	.	voice	.	176.758	G:7/3
8c	_	8c	And	.	.	.	.	.	.
=90	=90	=90	=90	=90	=90	=90	=90	=90	=90
2r	.	8g	may-	4Cmm	newline	voice	(A	177.252	C:min7
.	.	8g	-be,	.	.	.	a)	.	.
.	.	16f	_	4B-M	.	voice	.	177.747	B-:maj
.	.	16e-	_	.	.	.	.	.	.
.	.	8r	.	.	.	.	.	.	.
4.f	_	2r	.	2A-MM	.	voice	.	178.243	A-:maj7
[8e-	_	.	.	.	.	.	.	.	.
=91	=91	=91	=91	=91	=91	=91	=91	=91	=91
8e-]	_	4r	.	4Gmm	.	voice	.	179.234	G:min7
8c	_	.	.	.	.	.	.	.	.
4r	.	8r	.	2.Fmm	.	voice	.	179.729	F:min7
.	.	8c	you're	.	.	.	.	.	.
2r	.	4e-	gon-	.	.	.	.	.	.
.	.	8c	-na	.	.	.	.	.	.
.	.	[8g	change	.	.	.	.	.	.
=92	=92	=92	=92	=92	=92	=92	=92	=92	=92
2r	.	8g]	_	4Cmm	.	voice	.	181.216	C:min7
.	.	8B-	my	.	.	.	.	.	.
.	.	8c	life	4B-M	.	voice	.	181.712	B-:maj
.	.	8B-	a-	.	.	.	(b	.	.
4f	_	4c	-round!	2A-MM	.	voice	B)	182.207	A-:maj7
8e-	_	4r	.	.	.	.	.	.	.
8r	.	.	.	.	.	.	.	.	.
=93	=93	=93	=93	=93	=93	=93	=93	=93	=93
4f	_	2r	.	4Gmm	.	voice	.	183.198	G:min7
8e-	_	.	.	2Fmm	.	voice	.	183.694	F:min7
8r	.	.	.	.	.	.	.	.	.
4f	_	8r	.	.	.	.	.	.	.
.	.	4.b- 4.ee-	Ooh!	.	.	.	.	.	.
8e-	_	.	.	4GMm	.	voice	.	184.685	G:7/3
8r	.	.	.	.	.	.	.	.	.
=94	=94	=94	=94	=94	=94	=94	=94	=94	=94
8g	La-	8g 8cc	La-	4Cmm	newline	voice	(A	185.18	C:min7
8g	-dy!	8g 8cc	-dy!	.	.	.	a)	.	.
4f#	_	4r	.	2.B-M	.	voice	.	185.679	B-:maj
2r	.	2r	.	.	.	.	.	.	.
=95	=95	=95	=95	=95	=95	=95	=95	=95	=95
1r	.	1r	.	4Fmm	.	voice	.	187.174	F:min7
.	.	.	.	2.Gmm	.	voice	.	187.673	G:min7
=96	=96	=96	=96	=96	=96	=96	=96	=96	=96
1r	.	1r	.	4Cmm	.	voice	.	189.168	C:min7
.	.	.	.	2.B-M	.	voice	.	189.667	B-:maj
=97	=97	=97	=97	=97	=97	=97	=97	=97	=97
1r	.	1r	.	4Fmm	.	voice	.	191.162	F:min7
.	.	.	.	2.Gmm	.	voice	.	191.661	G:min7
=98	=98	=98	=98	=98	=98	=98	=98	=98	=98
*>Letter>A	*>Letter>A	*>Letter>A	*>Letter>A	*>Letter>A	*>Letter>A	*>Letter>A	*>Letter>A	*>Letter>A	*>Letter>A
*>Label>Outro	*>Label>Outro	*>Label>Outro	*>Label>Outro	*>Label>Outro	*>Label>Outro	*>Label>Outro	*>Label>Outro	*>Label>Outro	*>Label>Outro
1r	.	1r	.	4Cmm	newline	synth	.	193.157	C:min7
.	.	.	.	2.B-M	.	synth	.	193.647	B-:maj
=99	=99	=99	=99	=99	=99	=99	=99	=99	=99
1r	.	1r	.	4Fmm	.	synth	.	195.119	F:min7
.	.	.	.	2.Gmm	.	synth	.	195.609	G:min7
=100	=100	=100	=100	=100	=100	=100	=100	=100	=100
1r	.	1r	.	4Cmm	.	synth	.	197.081	C:min7
.	.	.	.	2.B-M	.	synth	.	197.571	B-:maj
=101	=101	=101	=101	=101	=101	=101	=101	=101	=101
1r	.	2r	.	4Fmm	.	synth	.	199.043	F:min7
.	.	.	.	4Gmm	.	synth	.	199.533	G:min7
.	.	8r	.	4E-M	.	synth	.	200.024	E-:maj
.	.	4.b- 4.ee-	Ooh!	.	.	.	.	.	.
.	.	.	.	4FM	.	synth	.	200.514	F:maj
=102	=102	=102	=102	=102	=102	=102	=102	=102	=102
1r	.	8g	La-	4Cmm	newline	synth	.	201.005	C:min7
.	.	8g	-dy!	.	.	.	.	.	.
.	.	4r	.	2.B-M	.	synth	.	201.502	B-:maj
.	.	2r	.	.	.	.	.	.	.
=103	=103	=103	=103	=103	=103	=103	=103	=103	=103
1r	.	4r	.	4Fmm	.	synth	.	202.993	F:min7
.	.	8r	.	2.Gmm	.	synth	.	203.49	G:min7
.	.	8c	You	.	.	.	.	.	.
.	.	4e-	bring	.	.	.	.	.	.
.	.	8c	me	.	.	.	.	.	.
.	.	8g	up	.	.	.	.	.	.
=104	=104	=104	=104	=104	=104	=104	=104	=104	=104
1r	.	8r	.	4Cmm	.	synth	.	204.981	C:min7
.	.	8B-	when	.	.	.	.	.	.
.	.	8c	I	2.B-M	.	synth	.	205.478	B-:maj
.	.	8B-	am	.	.	.	(b	.	.
.	.	4c	down.	.	.	.	B)	.	.
.	.	4r	.	.	.	.	.	.	.
=105	=105	=105	=105	=105	=105	=105	=105	=105	=105
1r	.	2r	.	4Fmm	.	synth	.	206.969	F:min7
.	.	.	.	2.Gmm	.	synth	.	207.466	G:min7
.	.	4r	.	.	.	.	.	.	.
.	.	8r	.	.	.	.	.	.	.
.	.	8c	And	.	.	.	.	.	.
=106	=106	=106	=106	=106	=106	=106	=106	=106	=106
1r	.	8g	may-	4Cmm	newline	synth	(A	208.957	C:min7
.	.	8g	-be,	.	.	.	a)	.	.
.	.	16f	_	2.B-M	.	synth	.	209.452	B-:maj
.	.	16e-	_	.	.	.	.	.	.
.	.	8r	.	.	.	.	.	.	.
.	.	2r	.	.	.	.	.	.	.
=107	=107	=107	=107	=107	=107	=107	=107	=107	=107
1r	.	4r	.	4Fmm	.	synth	.	210.939	F:min7
.	.	8r	.	2.Gmm	.	synth	.	211.434	G:min7
.	.	8c	you're	.	.	.	.	.	.
.	.	4e-	gon-	.	.	.	.	.	.
.	.	8c	-na	.	.	.	.	.	.
.	.	[8g	change	.	.	.	.	.	.
=108	=108	=108	=108	=108	=108	=108	=108	=108	=108
1r	.	8g]	_	4Cmm	.	synth	.	212.921	C:min7
.	.	8B-	my	.	.	.	.	.	.
.	.	8c	life	2.B-M	.	synth	.	213.416	B-:maj
.	.	8B-	a-	.	.	.	(b	.	.
.	.	4c	-round!	.	.	.	B)	.	.
.	.	4r	.	.	.	.	.	.	.
=109	=109	=109	=109	=109	=109	=109	=109	=109	=109
1r	.	2r	.	4Fmm	.	synth	.	214.903	F:min7
.	.	.	.	4Gmm	.	synth	.	215.399	G:min7
.	.	8r	.	4E-M	.	synth	.	215.894	E-:maj
.	.	4.b- 4.ee-	Ooh!	.	.	.	.	.	.
.	.	.	.	4FM	.	synth	.	216.39	F:maj
=110	=110	=110	=110	=110	=110	=110	=110	=110	=110
1r	.	8g	La-	4Cmm	newline	synth	(A	216.885	C:min7
.	.	8g	-dy!	.	.	.	a)	.	.
.	.	4r	.	2.B-M	.	synth	.	217.385	B-:maj
.	.	2r	.	.	.	.	.	.	.
=111	=111	=111	=111	=111	=111	=111	=111	=111	=111
1r	.	1r	.	4Fmm	.	synth	.	218.883	F:min7
.	.	.	.	2.Gmm	.	synth	.	219.383	G:min7
=112	=112	=112	=112	=112	=112	=112	=112	=112	=112
1r	.	1r	.	4Cmm	.	synth	.	220.881	C:min7
.	.	.	.	2.B-M	.	synth	.	221.38	B-:maj
=113	=113	=113	=113	=113	=113	=113	=113	=113	=113
1r	.	1r	.	4Fmm	.	synth	.	222.879	F:min7
.	.	.	.	2.Gmm	.	synth	.	223.378	G:min7
=114	=114	=114	=114	=114	=114	=114	=114	=114	=114
*>Label>>Fadeout	*>Label>>Fadeout	*>Label>>Fadeout	*>Label>>Fadeout	*>Label>>Fadeout	*>Label>>Fadeout	*>Label>>Fadeout	*>Label>>Fadeout	*>Label>>Fadeout	*>Label>>Fadeout
1r	.	1r	.	4Cmm	newline	synth	.	224.877	C:min7
.	.	.	.	2.B-M	.	synth	.	225.373	B-:maj
=115	=115	=115	=115	=115	=115	=115	=115	=115	=115
1r	.	1r	.	4Fmm	.	synth	.	226.86	F:min7
.	.	.	.	2.Gmm	.	synth	.	227.355	G:min7
=116	=116	=116	=116	=116	=116	=116	=116	=116	=116
1r	.	1r	.	4Cmm	.	synth	.	228.843	C:min7
.	.	.	.	2.B-M	.	synth	.	229.338	B-:maj
=117	=117	=117	=117	=117	=117	=117	=117	=117	=117
1r	.	2r	.	4Fmm	.	synth	.	230.825	F:min7
.	.	.	.	4Gmm	.	synth	.	231.321	G:min7
.	.	8r	.	4E-M	.	synth	.	231.817	E-:maj
.	.	4.b- 4.ee-	Ooh!	.	.	.	.	.	.
.	.	.	.	4FM	.	synth	.	232.313	F:maj
=118	=118	=118	=118	=118	=118	=118	=118	=118	=118
8g	La-	1r	.	4Cmm	newline	synth	(A	232.56	C:min7
8g	-dy!	.	.	.	.	.	a)	.	.
4r	.	.	.	2.B-M	.	synth	.	232.808	B-:maj
2r	.	.	.	.	.	.	.	.	.
=119	=119	=119	=119	=119	=119	=119	=119	=119	=119
4r	.	1r	.	4Fmm	.	synth	.	238.013	F:min7
8r	.	.	.	2.Gmm	.	synth	.	.	G:min7
8c	You	.	.	.	.	.	.	.	.
4e-	bring	.	.	.	.	.	.	.	.
8c	me	.	.	.	.	.	.	.	.
8g	up	.	.	.	.	.	.	.	.
=120	=120	=120	=120	=120	=120	=120	=120	=120	=120
8r	.	1r	.	4Cmm	.	synth	.	.	C:min7
8B-	when	.	.	.	.	.	.	.	.
8c	I	.	.	2.B-M	.	synth	.	.	B-:maj
8B-	am	.	.	.	.	.	(b	.	.
4c	down!	.	.	.	.	.	B)	.	.
4r	.	.	.	.	.	.	.	.	.
=121	=121	=121	=121	=121	=121	=121	=121	=121	=121
1r	.	1r	.	4Fmm	.	synth	.	.	F:min7
.	.	.	.	4Gmm	.	synth	.	.	G:min7
.	.	.	.	4E-M	.	synth	.	.	E-:maj
.	.	.	.	4FM	.	synth	.	.	F:maj
r;	.	r;	.	1r;	.	r	.	238.261	N.C.
r;	.	r;	.	1r;	.	r	.	241.307	N.C.
*-	*-	*-	*-	*-	*-	*-	*-	*-	*-
!!!BillboardChartDate: 1981/07/11
!!!BillboardPeak: 8
!!!BillboardWeeksOnChart: 22
!!!COC: Commodores
!!!ENC: Nathaniel Condit-Schultz
!!!EST: Awating manual error checking and editing.
!!!OTL: Lady (You Bring Me Up)
!!!RDF**chordsym: original McGill chord annotation + (implied pitch class set, with bass pitch in first position)
!!!RDF**harmony: **recip + pitch class of root + harmonic quality
!!!RDF**leadinstrument: original McGill primary instrumentation annotation
!!!RDF**phrase: newline = linebreak in original McGill transcription
!!!RDF**timestamp: McGill audio timestamp in seconds
!!!RDT: 2017/01/12/
!!!SampleActualRank: 35
!!!SampleID#: 0716
!!!SampleTargetRank: 36
